
     
(Project test-jig)
(Created with Estlcam 12.065)
(Machining time about 00:02:38 hours)
 
(Required tools:)
(Drazkovac)
(Endmill 1/8)
 
G21
G90
G94
M03 S24000
G00 Z5.0000
 
(No. 1 Part machining: Part 1)
G00 X-1.3834 Y-3.7499 Z5.0000
G00 Z0.5000
G01 Z0.0000 F300 S24000
G01 Z-6.0000
G03 X0.0000 Y-4.0000 I1.3765 J3.6626 F600
G01 X80.0000
G03 X84.0000 Y0.0000 I0.0000 J4.0000
G01 Y80.0000
G03 X80.0000 Y84.0000 I-4.0000 J0.0000
G01 X0.0000
G03 X-4.0000 Y80.0000 I0.0000 J-4.0000
G01 Y0.0000
G03 X-1.3834 Y-3.7499 I3.9912 J-0.0029
G01 Z-10.0000 F300
G03 X0.0000 Y-4.0000 I1.3765 J3.6626 F600
G01 X80.0000
G03 X84.0000 Y0.0000 I0.0000 J4.0000
G01 Y80.0000
G03 X80.0000 Y84.0000 I-4.0000 J0.0000
G01 X0.0000
G03 X-4.0000 Y80.0000 I0.0000 J-4.0000
G01 Y0.0000
G03 X-1.3834 Y-3.7499 I3.9912 J-0.0029
G00 Z5.0000
 
(No. 2 Part machining: Part 2)
M05
M06 T2 (Endmill 1/8)
M03 S24000
G00 X-0.5344 Y-1.4942 Z5.0000
G00 Z0.5000
G01 Z0.0000 F300
G03 X0.0000 Y-1.5875 Z-0.9444 I0.5333 J1.4769
G01 X2.3415 Z-5.0000
G01 X80.0000 F600
G03 X81.5875 Y0.0000 I0.0000 J1.5875
G01 Y80.0000
G03 X80.0000 Y81.5875 I-1.5875 J0.0000
G01 X0.0000
G03 X-1.5875 Y80.0000 I0.0000 J-1.5875
G01 Y0.0000
G03 X-0.5344 Y-1.4942 I1.5857 J-0.0006
G03 X0.0000 Y-1.5875 Z-5.9444 I0.5333 J1.4769 F300
G01 X2.3415 Z-10.0000
G01 X80.0000 F600
G03 X81.5875 Y0.0000 I0.0000 J1.5875
G01 Y80.0000
G03 X80.0000 Y81.5875 I-1.5875 J0.0000
G01 X0.0000
G03 X-1.5875 Y80.0000 I0.0000 J-1.5875
G01 Y0.0000
G03 X-0.5344 Y-1.4942 I1.5857 J-0.0006
G03 X0.0000 Y-1.5875 I0.5333 J1.4769
G01 X2.3415
G00 Z5.0000
G00 X0.0000 Y0.0000
 
 
M05
M30
